!! "[untitled song with accompaniment]" [Burma] in two-parts (excerpt only).
!! Transcribed by Huber, in Fritz Bose, 'Musikalische Voelkerkunde';
!! Freiburg: Atlantis-Musikbuecherei, 1953, p.187
!! NOTE: This excerpt was originally scored for three instruments and voice,
!!       however, the texture never exceeds two simultaneous instruments/voice
!!       and so is trivially arranged as a two-part work -- as is done here.
!!       The original work is encoded in the file "xxburma.02x".
**kern	**kern
*M4/4	*M4/4
=1	=1
4g	4r
4r	8r
.	8g
2r	8b
.	8a
.	8f#
.	8d
=2	=2
2r	4r
.	8r
.	8dd
8g	8ee
8r	8g
4d	8g
.	24a
.	24b
.	24a
=3	=3
1r	4g
.	8ee
.	8b
.	8b
.	8a
.	8g
.	8d
=4	=4
8g	8ee
8r	8ee
8a	8ee
8r	8ff#
8b	8ee
8r	8dd
8g	8b
8r	8a
=5	=5
4g	4gg
4r	8aa
.	8bb
2r	8aa
.	8gg
.	16ee
.	16dd
.	8r
=6	=6
4b	8b
.	8dd
16a	8r
16g	.
8r	8dd
8a	4gg
8b	.
8r	8aa
8b	8bb
=7	=7
8d	8dd
8e	16ee
.	16ff#
8g	16ff#
.	16ee
8e	{24ee
.	24ff#
.	24ee
8d	8dd}
8b	16r
.	16b
8b	24a
.	24b
.	24a
8a	8g
=8	=8
8e	8ee
8e	8ee
8e	16ee
.	16ff#
8g	8eeM
8e	8dd
8d	16r
.	{16dd
8b	24b
.	24dd
.	24b}
8a	{8a
=9	=9
2g	8g
.	8ee
.	8b
.	8b
2r	8b
.	8a
.	4g
====	====
*-	*-
